X: 1141
T: İki de Durnam
C: Dede Efendi
O: Turkey
F: http://compmusic.upf.edu/node/140
N: karcigar--kocekce--oynak--iki_de_durnam--dede_efendi
N: makam= karcigar
N: form= kocekce
N: usul= oynak = 9/8
M: 9/8
L: 1/16
K: C _2/4B _3/4e ^3/4f 
Q: 1/4=114
%%MIDI tuningsystem comma53
A_1/4BcA BGA2 A=ed2 cBBA G2 | A_1/4B cABG A3B GABc d_7/8edc  | 
w:   |   | 
d_7/8e^fd ecde dc_1/4BA Bcde dc | \
w:   | 
_1/4B2 BABG A3B GABc d_7/8edc  | 
w:   | 
d_7/8e^fd ecde dc_1/4BA Bcde dc | \
w:   | 
_1/4B2 BABG A3B GABc d_7/8edc  | 
w:   | 
d_7/8e^fg a_bag fedc _1/4Bcde dc | \
w:   | 
_1/4B2 BABG ABcA BGA2 A=ed2  | 
w:   | 
c_1/4BBA G2AB cABG A3B GA | _1/4Bc d_7/8edc de^fd ecde dcBA  | 
w:   |   | 
_1/4Bcd_7/8e dcB2 BABG A3B GA | _1/4Bc d_7/8edc de^fg a_bag fedc  | 
w:   |   | 
_1/4Bcd_7/8e dcB2 BABG A3e ed | _7/8ec edec de^fd ecde dc_1/4BA  | 
w:   |   | 
_1/4Bcd_7/8e dcB2 BABG A3e ed | _7/8ec edec de^fd ecde dc_1/4BA  | 
w:   |   | 
_1/4Bcd_7/8e dcB2 BABG A3B GA | _1/4Bc d_7/8edc de^fg a_bag fedc  | 
w:   |   | 
_1/4Bcd_7/8e dcB2 BABG ABcA BG | A2 A=ed2 c_1/4BBA G2AB cABG  | 
w:   |   | 
A3_1/4B GABc d_7/8edc de^fd ec | d_7/8e dc_1/4BA Bcde dcB2 BABG  | 
w:   |   | 
A3_1/4B GABc d_7/8edc de^fg a_b | \
w:   | 
ag ^f_7/8edc _1/4Bcde dcB2 BABG  | 
w:   | 
A3_7/8e edec edec de^fd ec | d_7/8e dc_1/4BA Bcde dcB2 BABG  | 
w:   |   | 
A3_1/4B GABc d_7/8edc de^fg a_b | \
w:   | 
ag ^f_7/8edc _1/4Bcde dcB2 BABG  | 
w:   | 
A6_1/4Bc A4 _7/8e2e2 e2 | _7/8e3ded c2d2 ^f2ed d4  | \
w:   |   | 
dcd2 _7/8e4 dcc4e4 | 
w:   | 
d2 _7/8edc2 d2^f2 edd4de  | d_7/8edc d2e4dc c4 e4 d2ed c2d2 ^f2ed d4  | 
w:   |   | 
d_7/8ede dcd2 e4 dc_1/4BA G2 | A4_1/4B2 c2Bc d4 c2Bc  | 
w:   |   | 
d4 dcd_7/8e2ddc c_1/4Bc4 | d2 _7/8e2ed edc2 d2ed dcc_1/4B  | 
w:   |   | 
c4 _1/4B2Bc d4 cBBA G2 | A4_1/4B2 c2Bc d4 c2Bc  | \
w:   |   | 
d2_7/8e2 ^f2d2 eddc c_1/4Bc4 | 
w:   | 
^f2 g2a2 _b2ag gf_ed dcc_1/4B  | c4 _1/4B2BA BcBA G2A4 | 
w:   |   | 
d2 =e2=fg efed edc_1/4B c2c2  | d2=e2 =fg_7/8ef eded c_1/4Bc2 c2 | 
w:   |   | 
d2 _7/8e2=fg efed c2_1/4Bc dedc  | \
w:   | 
_1/4B2BA BGA3BGA Bcd_7/8e dc | 
w:   | 
d_7/8e ^fdec dedc _1/4BABc dedc  | \
w:   | 
_1/4B2BA BGA3BGA Bcd_7/8e dc | 
w:   | 
d_7/8e ^fdec dedc _1/4BABc dedc  | \
w:   | 
_1/4B2BA BGA3BGA Bcd_7/8e dc | 
w:   | 
d_7/8e ^fga_b agfe dc_1/4Bc dedc  | \
w:   | 
_1/4B2BA BGA3BGA Bcd_7/8e dc | 
w:   | 
d_7/8e ^fga_b agfe dc_1/4Bc dedc  | \
w:   | 
_1/4B2BA BG|
w:   | 


